X: 070268
T: Galway Shawl
S: Jack Coen
Z: B.Black
R: reel
M: 4/4
L: 1/8
K: D
D2 DE EDB,C|D2 DE FA A2|Beed e2 de| f2 ed ceeB |
D2 DE EDB,C|DCDE FA A2|Beef e2 dB| AFEF D4 :|
ABde f2 fg | afdf eB B2 | ABde f2 fg | afdf e2 dB |
ABde f2 fg | afdf eBBA | d2 dB ABdf | afef d4 :|
